X:112
T:Hardiman's Fancy Jig
C:Traditional
Z:gturnbull:oblique-design.demon.co.uk
B:The Trip to Sligo (slightly different)
D:De Danann on "Star Spangled Molly" (as "Derrane's").
N:cf "The Banks of Lough Gowna"
N:Recorded first in the early 1950s by Joe Derrane and Jerry O'Brien.
N:It may have been named after a Martin Hardiman, an accordion player in Chicago.
M:6/8
L:1/8
R:Jig
K:Em
|: ~B3 BAF | AFD ~E3 | DFA def | afe dBA |
|  ~B3 BAF | AFD ~E3 | DFA def | edB ~B3 :|
|: ~e3 edB | AFD DFA | def afa | baf a2f |
|  baf afa | baf ~e3 | def afe | dBA ~B3 :|

